!!!OTL: "Die Kindesmoerderin" DA DRUNTEN AUF DER WIESEN
!!!ARE: Europa, Mitteleuropa, Deutschland
!!!SCT: Z1107
!!!YEM: Copyright 1995, estate of Helmut Schaffrath.
**kern
*ICvox
*Ivox
*M6/8
*k[b-e-]
*g:
{8d
=1
4g
8a
8b-
8a
8g
=2
4.g
4f#}
{8d
=3
4g
8a
8b-
8a
8g
=4
4.f#
4r}
{16g
16a
=5
4b-
8b-
4cc
8a
=6
4.g
4dd}
{8b-
=7
4a
8g
8f#
8g
8a
=8
4g
4.r}
==
!!!AGN: Romanze, Ballade, Tod
!!!ONB: ESAC (Essen Associative Code) Database: ZUCCAL
!!!AMT: compound duple
!!!AIN: vox
!!!EED: Helmut Schaffrath
!!!EEV: 1.0
*-
